X: 1
T: NORA CREINA'S -- JIG
B: Ryan's Mammoth Collection of Fiddle Tunes
R: jig
M: 6/8
L: 1/8
Z: Contributed 20000913170436 by John Chambers John.Chambers:weema.com
K: G
(vkg2.G) (G2.A) | "SEGUE"BAG "4"edB | kg2G G2B | A2B dcA \
| kg2G G2A | B2G d2B | A2=f fef | A2B cBA :|
|: (vd2.d) (d2.c) | BAG (d2.B) | "SEGUE"d2d "4"edB | cAB cBA \
| d2d d2c | BAG dcB | A2=f fef | A2B cBA :|
